sources/resources/icons/32/shape/octogon-filled.svg

<svg width="32" height="32" viewBox="0 0 32 32" fill="none" xmlns="http://www.w3.org/2000/svg">
<path d="M1.87452 6.65882L6.65882 1.87452C7.35062 1.18271 7.69653 0.836806 8.10019 0.589439C8.45808 0.370125 8.84826 0.208507 9.25641 0.11052C9.71676 0 10.2059 0 11.1843 0H20.8157C21.7941 0 22.2832 0 22.7436 0.11052C23.1517 0.208507 23.5419 0.370125 23.8998 0.589439C24.3035 0.836807 24.6494 1.18271 25.3412 1.87452L30.1255 6.65882C30.8173 7.35062 31.1632 7.69653 31.4106 8.10019C31.6299 8.45808 31.7915 8.84826 31.8895 9.25641C32 9.71676 32 10.2059 32 11.1843V20.8157C32 21.7941 32 22.2832 31.8895 22.7436C31.7915 23.1517 31.6299 23.5419 31.4106 23.8998C31.1632 24.3035 30.8173 24.6494 30.1255 25.3412L25.3412 30.1255C24.6494 30.8173 24.3035 31.1632 23.8998 31.4106C23.5419 31.6299 23.1517 31.7915 22.7436 31.8895C22.2832 32 21.7941 32 20.8157 32H11.1843C10.2059 32 9.71676 32 9.25641 31.8895C8.84826 31.7915 8.45808 31.6299 8.10019 31.4106C7.69653 31.1632 7.35062 30.8173 6.65882 30.1255L1.87452 25.3412C1.18271 24.6494 0.836807 24.3035 0.589439 23.8998C0.370125 23.5419 0.208507 23.1517 0.11052 22.7436C0 22.2832 0 21.7941 0 20.8157V11.1843C0 10.2059 0 9.71676 0.11052 9.25641C0.208507 8.84826 0.370125 8.45808 0.589439 8.10019C0.836806 7.69653 1.18271 7.35062 1.87452 6.65882Z" fill="white"/>
</svg>

<svg fill="none" viewBox="0 0 32 32" xmlns="http://www.w3.org/2000/svg"><path d="m1.87 6.66 4.78-4.78c0.692-0.692 1.04-1.04 1.44-1.29 0.358-0.219 0.748-0.381 1.16-0.479 0.46-0.111 0.949-0.111 1.93-0.111h9.63c0.978 0 1.47 0 1.93 0.111 0.408 0.098 0.798 0.26 1.16 0.479 0.404 0.247 0.75 0.593 1.44 1.29l4.78 4.78c0.692 0.692 1.04 1.04 1.29 1.44 0.219 0.358 0.381 0.748 0.479 1.16 0.11 0.46 0.11 0.949 0.11 1.93v9.63c0 0.978 0 1.47-0.11 1.93-0.098 0.408-0.26 0.798-0.479 1.16-0.247 0.404-0.593 0.75-1.29 1.44l-4.78 4.78c-0.692 0.692-1.04 1.04-1.44 1.29-0.358 0.219-0.748 0.381-1.16 0.479-0.46 0.11-0.95 0.11-1.93 0.11h-9.63c-0.978 0-1.47 0-1.93-0.11-0.408-0.098-0.798-0.26-1.16-0.479-0.404-0.247-0.75-0.593-1.44-1.29l-4.78-4.78c-0.692-0.692-1.04-1.04-1.29-1.44-0.219-0.358-0.381-0.748-0.479-1.16-0.111-0.46-0.111-0.95-0.111-1.93v-9.63c0-0.978 0-1.47 0.111-1.93 0.098-0.408 0.26-0.798 0.479-1.16 0.247-0.404 0.593-0.75 1.29-1.44z" fill="#000"/></svg>
